dist/svg/subnet.svg

<!-- Generated by Trend Micro Style Portal -->
<svg version="1.1" xmlns="http://www.w3.org/2000/svg" width="16" height="16" viewBox="0 0 16 16">
  <title>subnet</title>
  <path fill="rgb(34,34,34)" d="M11 14h5v1h-5v1h-6v-1h-5v-1h5v-1h2v-2h2v2h2v1z"></path>
  <path fill="rgb(34,34,34)" d="M9.624 1c1.355 0 2.531 0.916 2.859 2.229l0.126 0.569 0.557 0.171c1.094 0.335 1.831 1.32 1.834 2.438-0.016 1.43-1.191 2.594-2.652 2.594h-9.682c-0.909 0-1.655-0.739-1.664-1.648l-0.001-0.059c0.037-0.71 0.527-1.324 1.184-1.501l0.687-0.145 0.097-0.695c0.165-1.177 1.18-2.065 2.382-2.065 0.196 0 0.361 0.019 0.535 0.063l0.724 0.181 0.38-0.642c0.551-0.933 1.519-1.49 2.598-1.49h0.035zM9.624 0h-0.045c-1.464 0-2.744 0.788-3.449 1.981-0.256-0.064-0.502-0.093-0.778-0.093h-0.021c-1.707 0-3.119 1.265-3.352 2.926l-0.019 0.004c-1.124 0.302-1.953 1.325-1.961 2.543l0.003 0.001v0.001c0.014 1.459 1.201 2.637 2.664 2.637h9.713c1.986 0 3.598-1.599 3.62-3.583-0.004-1.6-1.062-2.952-2.541-3.405l-0.006-0.027c-0.43-1.715-1.982-2.985-3.829-2.985z"></path>
</svg>

<svg width="16" height="16" viewBox="0 0 16 16" fill="rgb(34, 34, 34)" xmlns="http://www.w3.org/2000/svg"><title>subnet</title><g clip-path="url(#clip0_281_987)"><path d="M11 14H16V15H11V16H5V15H5.49364e-07V14H5V13H7V11H9V13H11V14Z" fill="rgb(34, 34, 34)" fill-opacity="1.00"/><path d="M9.624 1C10.979 1 12.155 1.916 12.483 3.229L12.609 3.798L13.166 3.969C14.26 4.304 14.997 5.289 15 6.407C14.984 7.837 13.809 9.001 12.348 9.001H2.666C1.757 9.001 1.011 8.262 1.002 7.353L1.001 7.294C1.038 6.584 1.528 5.97 2.185 5.793L2.872 5.648L2.969 4.953C3.134 3.776 4.149 2.888 5.351 2.888C5.547 2.888 5.712 2.907 5.886 2.951L6.61 3.132L6.99 2.49C7.541 1.557 8.509 1 9.588 1H9.624ZM9.624 0H9.579C8.115 0 6.835 0.788 6.13 1.981C5.874 1.917 5.628 1.888 5.352 1.888H5.331C3.624 1.888 2.212 3.153 1.979 4.814L1.96 4.818C0.836001 5.12 0.00700055 6.143 -0.000999451 7.361L0.00200055 7.362C0.0160006 8.821 1.203 10 2.666 10H12.379C14.365 10 15.977 8.401 15.999 6.417C15.995 4.817 14.937 3.465 13.458 3.012L13.452 2.985C13.022 1.27 11.471 0 9.624 0Z" fill="rgb(34, 34, 34)" fill-opacity="1.00"/></g><defs><clipPath id="clip0_281_987"><rect width="16" height="16" fill="rgb(34, 34, 34)"/></clipPath></defs></svg>
